Sources/FrostedUI/Resources/Icons.xcassets/medalCheckmark16.imageset/medal-checkmark-16.svg

<svg width="16" height="16" viewBox="0 0 16 16" fill="none" xmlns="http://www.w3.org/2000/svg" data-fui-icon="true">
  <path
    d="M3.23792 0.118164C4.56309 0.118405 5.50701 1.18419 5.73108 2.3125C5.91955 3.26125 6.26268 4.03187 6.55823 4.56445C6.62544 4.68555 6.69035 4.79393 6.74963 4.88867C7.1517 4.79636 7.57053 4.74611 8.00061 4.74609C8.43029 4.74613 8.84889 4.79651 9.25061 4.88867C9.30994 4.79387 9.37573 4.68566 9.44299 4.56445C9.73851 4.03187 10.0817 3.26109 10.2701 2.3125C10.4943 1.18412 11.4379 0.118164 12.7633 0.118164H14.025C15.0555 0.118418 16.077 0.991932 15.8551 2.19824C15.509 4.0786 14.4799 5.45284 13.5651 6.34277C13.2157 6.68254 12.8771 6.95561 12.5924 7.16504C13.2077 8.06055 13.5689 9.14489 13.569 10.3135C13.569 13.3883 11.0754 15.8816 8.00061 15.8818C4.92573 15.8817 2.43323 13.3884 2.43323 10.3135C2.43333 9.14539 2.79305 8.06131 3.40784 7.16602C3.12319 6.9566 2.78552 6.68255 2.43616 6.34277C1.52124 5.45285 0.492297 4.07882 0.146118 2.19824C-0.075909 0.991836 0.944725 0.118404 1.97522 0.118164H3.23792ZM8.00061 6.24609C5.75432 6.2462 3.93349 8.06723 3.93323 10.3135C3.93323 12.56 5.75416 14.3817 8.00061 14.3818C10.2469 14.3816 12.069 12.5599 12.069 10.3135C12.0687 8.06731 10.2468 6.24634 8.00061 6.24609ZM9.17151 8.78418C9.46439 8.49166 9.93926 8.49151 10.2321 8.78418C10.5247 9.07697 10.5246 9.55186 10.2321 9.84473L7.77502 12.3027C7.63448 12.4433 7.44253 12.5223 7.24377 12.5225C7.09478 12.5224 6.94994 12.4779 6.82776 12.3965L6.7135 12.3027L5.76819 11.3574C5.4755 11.0646 5.47561 10.5897 5.76819 10.2969C6.06107 10.0043 6.53592 10.0042 6.82874 10.2969L7.24377 10.7109L9.17151 8.78418ZM1.97522 1.61816C1.84735 1.61828 1.74267 1.67153 1.68127 1.73633C1.6261 1.7947 1.60772 1.85593 1.62073 1.92676C1.89281 3.40483 2.70749 4.51419 3.48206 5.26758C3.82959 5.60557 4.16383 5.86512 4.42346 6.04785C4.70262 5.81355 5.00496 5.60525 5.32678 5.42871C5.30125 5.38458 5.27289 5.34014 5.2467 5.29297C4.89413 4.65766 4.48483 3.73949 4.2594 2.60449C4.13929 1.99967 3.67967 1.61842 3.23792 1.61816H1.97522ZM12.7633 1.61816C12.3214 1.61816 11.862 1.99955 11.7418 2.60449C11.5164 3.73938 11.1071 4.65765 10.7545 5.29297C10.7283 5.34026 10.6991 5.38448 10.6735 5.42871C10.9952 5.60512 11.2977 5.81274 11.5768 6.04688C11.8364 5.86412 12.1717 5.60557 12.5192 5.26758C13.2936 4.51419 14.1085 3.40462 14.3805 1.92676C14.3934 1.8561 14.3749 1.79458 14.3199 1.73633C14.2586 1.67141 14.1531 1.61829 14.025 1.61816H12.7633Z"
    fill="currentColor"
  />
</svg>

<svg xmlns="http://www.w3.org/2000/svg" width="16" height="16" fill="none" data-fui-icon="true" viewBox="0 0 16 16"><path fill="currentColor" d="M3.238.118c1.325 0 2.269 1.066 2.493 2.194A7.8 7.8 0 0 0 6.75 4.89a5.6 5.6 0 0 1 2.5 0q.091-.142.193-.325a7.8 7.8 0 0 0 .827-2.251c.224-1.129 1.168-2.195 2.493-2.195h1.262c1.03 0 2.052.874 1.83 2.08-.346 1.88-1.375 3.255-2.29 4.145-.35.34-.688.613-.973.822A5.57 5.57 0 0 1 8 15.882a5.568 5.568 0 0 1-4.592-8.716 9 9 0 0 1-.972-.823C1.521 5.453.492 4.079.146 2.198-.076.992.945.118 1.976.118zM8 6.246a4.068 4.068 0 1 0 0 8.136 4.068 4.068 0 0 0 0-8.136m1.17 2.538a.75.75 0 0 1 1.061 1.06l-2.457 2.459a.75.75 0 0 1-.947.093l-.115-.093-.945-.946a.75.75 0 0 1 1.06-1.06l.416.414zM1.976 1.618a.4.4 0 0 0-.294.118.2.2 0 0 0-.06.19c.272 1.479 1.086 2.588 1.861 3.342.348.338.682.597.941.78q.42-.353.904-.62-.04-.065-.08-.135a9.3 9.3 0 0 1-.988-2.689c-.12-.604-.58-.986-1.021-.986zm10.788 0c-.442 0-.901.382-1.021.986a9.3 9.3 0 0 1-.988 2.689q-.04.07-.08.136.483.266.903.618c.26-.183.595-.441.942-.78.775-.753 1.59-1.862 1.861-3.34a.21.21 0 0 0-.06-.19.4.4 0 0 0-.295-.119z"/></svg>
